X:1
T:Lesson 5 - Eighth Notes
M:C
K:A
L:1/4
A A A/A/A/A/|B2 B2|c c c/c/c/c/|d2 d2|
e e e/e/e/e/|f2 f2|g g g/g/g/g/|a2 a2|
a/a/a/a/ g/g/g/g/|f2 f2|d/d/d/d/ c/c/c/c/|B B A2|]
